X: 43217
T: With Marley To Galicia
R: polka
M: 2/4
K: Gmajor
|:DG GA|Bc A2|BG AG|FD D2|
dB cA|B/A/G FD|d/d/d/d/ dc|AG G2:|
Bd ed|e=f ed|Bd ef|gB A2|
Bd ed|e=f ed|g/f/e dB|AG G2|
Bd ed|e=f ed|Bd g/f/d|g/f/B A2|
Bd ed|e=f ed|g/f/e dB|AG G2||

